app/assets/images/badges/profil-1-blanc.svg

<svg width="20" height="20" viewBox="0 0 20 20" fill="none" xmlns="http://www.w3.org/2000/svg">
<path d="M7.17036 4.75003C7.2837 4.75003 7.39148 4.78448 7.4937 4.85337C7.59592 4.92003 7.67814 5.01114 7.74036 5.1267C7.80259 5.24003 7.8337 5.36448 7.8337 5.50003C7.8337 5.63337 7.80259 5.75781 7.74036 5.87337C7.67814 5.98892 7.59592 6.08114 7.4937 6.15003C7.39148 6.2167 7.2837 6.25003 7.17036 6.25003H6.59036V6.88003C6.59036 6.94003 6.57259 6.98892 6.53703 7.0267C6.50148 7.06448 6.45481 7.08337 6.39703 7.08337C6.34148 7.08337 6.29592 7.06448 6.26036 7.0267C6.22481 6.9867 6.20703 6.93781 6.20703 6.88003V4.95337C6.20703 4.89559 6.22592 4.84781 6.2637 4.81003C6.3037 4.77003 6.35259 4.75003 6.41036 4.75003H7.17036ZM7.17036 5.87003C7.21259 5.87003 7.2537 5.85225 7.2937 5.8167C7.33592 5.78114 7.36925 5.73559 7.3937 5.68003C7.42036 5.62225 7.4337 5.56225 7.4337 5.50003C7.4337 5.43781 7.42036 5.37892 7.3937 5.32337C7.36925 5.26559 7.33592 5.22003 7.2937 5.1867C7.2537 5.15114 7.21259 5.13337 7.17036 5.13337H6.59036V5.87003H7.17036Z" fill="#FBF9FA"/>
<path d="M9.10883 5.2667C9.17549 5.2667 9.23105 5.28559 9.2755 5.32337C9.32216 5.36114 9.34549 5.40559 9.34549 5.4567C9.34549 5.52559 9.32772 5.57781 9.29216 5.61337C9.25661 5.6467 9.21438 5.66337 9.16549 5.66337C9.13216 5.66337 9.09438 5.65559 9.05216 5.64003C9.04549 5.63781 9.02994 5.63337 9.00549 5.6267C8.98327 5.62003 8.95883 5.6167 8.93216 5.6167C8.87438 5.6167 8.81883 5.63448 8.7655 5.67003C8.71216 5.70559 8.66772 5.76003 8.63216 5.83337C8.59883 5.90448 8.58216 5.99003 8.58216 6.09003V6.88003C8.58216 6.93781 8.56327 6.9867 8.52549 7.0267C8.48772 7.06448 8.43994 7.08337 8.38216 7.08337C8.32438 7.08337 8.27661 7.06448 8.23883 7.0267C8.20105 6.9867 8.18216 6.93781 8.18216 6.88003V5.50337C8.18216 5.44559 8.20105 5.39781 8.23883 5.36003C8.27661 5.32003 8.32438 5.30003 8.38216 5.30003C8.43994 5.30003 8.48772 5.32003 8.52549 5.36003C8.56327 5.39781 8.58216 5.44559 8.58216 5.50337V5.5467C8.63327 5.45559 8.70661 5.3867 8.80216 5.34003C8.89772 5.29114 8.99994 5.2667 9.10883 5.2667Z" fill="#FBF9FA"/>
<path d="M11.2659 6.19337C11.2659 6.37114 11.2259 6.53114 11.1459 6.67337C11.0659 6.81337 10.9559 6.92225 10.8159 7.00003C10.6782 7.07781 10.5259 7.1167 10.3593 7.1167C10.1904 7.1167 10.037 7.07781 9.89927 7.00003C9.76149 6.92225 9.6526 6.81337 9.5726 6.67337C9.4926 6.53114 9.4526 6.37114 9.4526 6.19337C9.4526 6.01559 9.4926 5.8567 9.5726 5.7167C9.6526 5.57448 9.76149 5.46448 9.89927 5.3867C10.037 5.3067 10.1904 5.2667 10.3593 5.2667C10.5259 5.2667 10.6782 5.3067 10.8159 5.3867C10.9559 5.46448 11.0659 5.57448 11.1459 5.7167C11.2259 5.8567 11.2659 6.01559 11.2659 6.19337ZM10.8659 6.19337C10.8659 6.08448 10.8426 5.98781 10.7959 5.90337C10.7515 5.8167 10.6904 5.75003 10.6126 5.70337C10.537 5.6567 10.4526 5.63337 10.3593 5.63337C10.2659 5.63337 10.1804 5.6567 10.1026 5.70337C10.027 5.75003 9.96594 5.8167 9.91927 5.90337C9.87483 5.98781 9.8526 6.08448 9.8526 6.19337C9.8526 6.30225 9.87483 6.39892 9.91927 6.48337C9.96594 6.56781 10.027 6.63337 10.1026 6.68003C10.1804 6.7267 10.2659 6.75003 10.3593 6.75003C10.4526 6.75003 10.537 6.7267 10.6126 6.68003C10.6904 6.63337 10.7515 6.56781 10.7959 6.48337C10.8426 6.39892 10.8659 6.30225 10.8659 6.19337Z" fill="#FBF9FA"/>
<path d="M12.4568 4.97003C12.3812 4.97003 12.3279 4.99225 12.2968 5.0367C12.2657 5.07892 12.2501 5.12559 12.2501 5.1767V5.33337H12.5535C12.6068 5.33337 12.6512 5.35114 12.6868 5.3867C12.7224 5.42003 12.7401 5.46337 12.7401 5.5167C12.7401 5.57003 12.7224 5.61448 12.6868 5.65003C12.6512 5.68337 12.6068 5.70003 12.5535 5.70003H12.2501V6.88003C12.2501 6.93781 12.2312 6.9867 12.1935 7.0267C12.1557 7.06448 12.1079 7.08337 12.0501 7.08337C11.9924 7.08337 11.9446 7.06448 11.9068 7.0267C11.869 6.9867 11.8501 6.93781 11.8501 6.88003V5.70003H11.6701C11.6168 5.70003 11.5724 5.68337 11.5368 5.65003C11.5012 5.61448 11.4835 5.57003 11.4835 5.5167C11.4835 5.46337 11.5012 5.42003 11.5368 5.3867C11.5724 5.35114 11.6168 5.33337 11.6701 5.33337H11.8501V5.18003C11.8501 5.01337 11.9068 4.87781 12.0201 4.77337C12.1357 4.66892 12.3012 4.6167 12.5168 4.6167C12.599 4.6167 12.6701 4.63337 12.7301 4.6667C12.7924 4.70003 12.8235 4.75114 12.8235 4.82003C12.8235 4.87337 12.8079 4.9167 12.7768 4.95003C12.7457 4.98337 12.7079 5.00003 12.6635 5.00003C12.6524 5.00003 12.6401 4.99892 12.6268 4.9967C12.6157 4.99448 12.6035 4.99225 12.5901 4.99003C12.5368 4.9767 12.4924 4.97003 12.4568 4.97003ZM13.3668 6.88003C13.3668 6.93781 13.3479 6.9867 13.3101 7.0267C13.2724 7.06448 13.2246 7.08337 13.1668 7.08337C13.109 7.08337 13.0612 7.06448 13.0235 7.0267C12.9857 6.9867 12.9668 6.93781 12.9668 6.88003V5.50337C12.9668 5.44559 12.9857 5.39781 13.0235 5.36003C13.0612 5.32003 13.109 5.30003 13.1668 5.30003C13.2246 5.30003 13.2724 5.32003 13.3101 5.36003C13.3479 5.39781 13.3668 5.44559 13.3668 5.50337V6.88003ZM13.1635 5.08337C13.0879 5.08337 13.0346 5.07114 13.0035 5.0467C12.9724 5.02225 12.9568 4.97892 12.9568 4.9167V4.85337C12.9568 4.79114 12.9735 4.74781 13.0068 4.72337C13.0401 4.69892 13.0935 4.6867 13.1668 4.6867C13.2446 4.6867 13.299 4.69892 13.3301 4.72337C13.3612 4.74781 13.3768 4.79114 13.3768 4.85337V4.9167C13.3768 4.98114 13.3601 5.02559 13.3268 5.05003C13.2957 5.07225 13.2412 5.08337 13.1635 5.08337Z" fill="#FBF9FA"/>
<path d="M14.2112 6.88003C14.2112 6.93781 14.1912 6.9867 14.1512 7.0267C14.1134 7.06448 14.0656 7.08337 14.0079 7.08337C13.9523 7.08337 13.9056 7.06448 13.8679 7.0267C13.8301 6.9867 13.8112 6.93781 13.8112 6.88003V4.82003C13.8112 4.76225 13.8301 4.71448 13.8679 4.6767C13.9079 4.6367 13.9568 4.6167 14.0145 4.6167C14.0701 4.6167 14.1168 4.6367 14.1545 4.6767C14.1923 4.71448 14.2112 4.76225 14.2112 4.82003V6.88003Z" fill="#FBF9FA"/>
<path fill-rule="evenodd" clip-rule="evenodd" d="M10 18.75C14.8325 18.75 18.75 14.8325 18.75 10C18.75 5.16751 14.8325 1.25 10 1.25C5.16751 1.25 1.25 5.16751 1.25 10C1.25 14.8325 5.16751 18.75 10 18.75ZM10 20C15.5228 20 20 15.5228 20 10C20 4.47715 15.5228 0 10 0C4.47715 0 0 4.47715 0 10C0 15.5228 4.47715 20 10 20Z" fill="#FBF9FA"/>
<path d="M10.4189 9.7085C10.5647 9.7085 10.6872 9.761 10.7864 9.866C10.8856 9.96516 10.9351 10.0906 10.9351 10.2422V15.2997C10.9351 15.4514 10.8797 15.5797 10.7689 15.6847C10.6581 15.7839 10.521 15.8335 10.3576 15.8335C10.1943 15.8335 10.0601 15.7839 9.95514 15.6847C9.85014 15.5797 9.79764 15.4514 9.79764 15.2997V11.1522L9.25513 11.4847C9.16763 11.5372 9.0743 11.5635 8.97513 11.5635C8.8293 11.5635 8.70388 11.5081 8.59888 11.3972C8.49972 11.2864 8.45013 11.1639 8.45013 11.0297C8.45013 10.9364 8.47347 10.8489 8.52013 10.7672C8.57263 10.6856 8.63972 10.6214 8.72138 10.5747L10.0426 9.78725C10.1418 9.73475 10.2672 9.7085 10.4189 9.7085Z" fill="#FBF9FA"/>
</svg>

<svg width="20" height="20" fill="none" xmlns="http://www.w3.org/2000/svg"><path d="M7.17 4.75a.57.57 0 01.324.103.735.735 0 01.246.274.763.763 0 01.094.373.775.775 0 01-.094.373.763.763 0 01-.246.277.582.582 0 01-.324.1h-.58v.63c0 .06-.017.109-.053.147a.183.183 0 01-.14.056.18.18 0 01-.137-.056.213.213 0 01-.053-.147V4.953a.2.2 0 01.203-.203h.76zm0 1.12a.185.185 0 00.124-.053.425.425 0 000-.63.185.185 0 00-.124-.054h-.58v.737h.58zM9.109 5.267c.066 0 .122.019.166.056.047.038.07.083.07.134 0 .069-.017.12-.053.156a.179.179 0 01-.127.05.332.332 0 01-.113-.023 1.196 1.196 0 00-.047-.013.296.296 0 00-.24.043.399.399 0 00-.133.163.6.6 0 00-.05.257v.79a.206.206 0 01-.057.147.194.194 0 01-.143.056.194.194 0 01-.143-.056.206.206 0 01-.057-.147V5.503c0-.057.02-.105.057-.143a.189.189 0 01.143-.06c.058 0 .106.02.143.06a.194.194 0 01.057.143v.044a.495.495 0 01.22-.207.664.664 0 01.307-.073zM11.266 6.193c0 .178-.04.338-.12.48a.848.848 0 01-.33.327.913.913 0 01-.457.117A.92.92 0 019.9 7a.854.854 0 01-.326-.327.962.962 0 01-.12-.48c0-.177.04-.336.12-.476a.848.848 0 01.326-.33.9.9 0 01.46-.12c.167 0 .32.04.457.12.14.077.25.187.33.33.08.14.12.299.12.476zm-.4 0a.59.59 0 00-.07-.29.484.484 0 00-.437-.27.49.49 0 00-.256.07.516.516 0 00-.184.2.613.613 0 00-.066.29c0 .11.022.206.066.29a.49.49 0 00.44.267.49.49 0 00.437-.267.59.59 0 00.07-.29zM12.457 4.97c-.076 0-.13.022-.16.067a.23.23 0 00-.047.14v.156h.303a.18.18 0 01.134.054.17.17 0 01.053.13.18.18 0 01-.053.133.187.187 0 01-.133.05h-.304v1.18a.206.206 0 01-.056.147.194.194 0 01-.144.056.194.194 0 01-.143-.056.206.206 0 01-.057-.147V5.7h-.18a.187.187 0 01-.133-.05.18.18 0 01-.054-.133.17.17 0 01.054-.13.18.18 0 01.133-.054h.18V5.18c0-.167.057-.302.17-.407.116-.104.281-.156.497-.156.082 0 .153.016.213.05a.163.163 0 01.093.153.183.183 0 01-.046.13.15.15 0 01-.113.05.225.225 0 01-.037-.003 1.125 1.125 0 00-.037-.007.569.569 0 00-.133-.02zm.91 1.91a.206.206 0 01-.057.147.194.194 0 01-.143.056.194.194 0 01-.143-.056.206.206 0 01-.057-.147V5.503c0-.057.019-.105.056-.143a.188.188 0 01.144-.06c.058 0 .105.02.143.06a.194.194 0 01.057.143V6.88zm-.204-1.797c-.075 0-.128-.012-.16-.036-.03-.025-.046-.068-.046-.13v-.064c0-.062.016-.105.05-.13.033-.024.087-.036.16-.036.078 0 .132.012.163.036.031.025.047.068.047.13v.064c0 .064-.017.109-.05.133-.031.022-.086.033-.163.033zM14.211 6.88a.2.2 0 01-.203.203.19.19 0 01-.14-.056.206.206 0 01-.057-.147V4.82a.2.2 0 01.203-.203c.056 0 .103.02.14.06a.194.194 0 01.057.143v2.06z" fill="#FBF9FA"/><path fill-rule="evenodd" clip-rule="evenodd" d="M10 18.75a8.75 8.75 0 100-17.5 8.75 8.75 0 000 17.5zM10 20c5.523 0 10-4.477 10-10S15.523 0 10 0 0 4.477 0 10s4.477 10 10 10z" fill="#FBF9FA"/><path d="M10.419 9.709c.146 0 .268.052.367.157.1.1.15.225.15.376V15.3a.51.51 0 01-.167.385.594.594 0 01-.411.149.562.562 0 01-.403-.15.524.524 0 01-.157-.384v-4.148l-.543.333a.535.535 0 01-.28.079.5.5 0 01-.376-.167.539.539 0 01-.149-.367.52.52 0 01.07-.263.578.578 0 01.201-.192l1.322-.788a.8.8 0 01.376-.079z" fill="#FBF9FA"/></svg>
